public/logo-lilly-med.svg

<svg width="120" height="40" viewBox="0 0 120 40" fill="none" xmlns="http://www.w3.org/2000/svg">
<path d="M1.04315 35.6855C1.0542 35.6377 1.1021 35.6046 1.15 35.6046H1.2458C1.28633 35.6046 1.33423 35.634 1.34528 35.6708L2.51327 38.9136H2.54274L3.69231 35.6708C3.70336 35.634 3.75126 35.6046 3.79179 35.6046H3.88759C3.93549 35.6046 3.98339 35.6414 3.99444 35.6855L4.75345 39.6416C4.77187 39.7225 4.73503 39.7813 4.6466 39.7813H4.41079C4.36289 39.7813 4.31499 39.7408 4.30394 39.7004L3.78074 36.6708H3.75863L2.67539 39.7776C2.66433 39.8144 2.60907 39.8438 2.57591 39.8438H2.46905C2.43221 39.8438 2.38063 39.8144 2.36957 39.7776L1.27159 36.6708H1.24948L0.737336 39.7004C0.729967 39.7408 0.678384 39.7813 0.630485 39.7813H0.394677C0.306249 39.7813 0.269403 39.7225 0.287826 39.6416L1.05052 35.6855H1.04315Z" fill="black"/>
<path d="M6.88867 35.7736C6.88867 35.7148 6.93657 35.6633 6.99921 35.6633H9.32413C9.39045 35.6633 9.43467 35.7148 9.43467 35.7736V35.9428C9.43467 36.0016 9.38677 36.0531 9.32413 36.0531H7.34187V37.4906H9.03305C9.09201 37.4906 9.14359 37.5421 9.14359 37.6009V37.7701C9.14359 37.8362 9.09201 37.8803 9.03305 37.8803H7.34187V39.3804H9.32413C9.39045 39.3804 9.43467 39.4319 9.43467 39.4907V39.6598C9.43467 39.7187 9.38677 39.7701 9.32413 39.7701H6.99921C6.93289 39.7701 6.88867 39.7187 6.88867 39.6598V35.7626V35.7736Z" fill="black"/>
<path d="M11.5547 35.7736C11.5547 35.7148 11.6026 35.6633 11.6615 35.6633H12.9806C14.1191 35.6633 15.0513 36.5862 15.0513 37.7186C15.0513 38.851 14.1191 39.7849 12.9806 39.7849H11.6615C11.6026 39.7849 11.5547 39.7334 11.5547 39.6746V35.7773V35.7736ZM12.929 39.3767C13.8943 39.3767 14.5723 38.6892 14.5723 37.7186C14.5723 36.7479 13.8943 36.0641 12.929 36.0641H12.0042V39.3767H12.929Z" fill="black"/>
<path d="M17.1973 35.7736C17.1973 35.7148 17.2488 35.6633 17.3078 35.6633H17.5436C17.6026 35.6633 17.6541 35.7148 17.6541 35.7736V39.6709C17.6541 39.7297 17.6026 39.7812 17.5436 39.7812H17.3078C17.2488 39.7812 17.1973 39.7297 17.1973 39.6709V35.7736Z" fill="black"/>
<path d="M21.9246 35.6047C22.5215 35.6047 22.9525 35.8106 23.3505 36.1526C23.3984 36.2004 23.4021 36.2702 23.3578 36.318L23.1994 36.4761C23.1515 36.5349 23.1036 36.5276 23.0447 36.4688C22.7388 36.204 22.3483 36.0276 21.9172 36.0276C20.985 36.0276 20.2702 36.8107 20.2702 37.7225C20.2702 38.6343 20.985 39.4101 21.9172 39.4101C22.4293 39.4101 22.7315 39.2336 23.0447 38.9689C23.1036 38.9211 23.1515 38.9284 23.1994 38.9762L23.3357 39.1123C23.3836 39.149 23.3726 39.2299 23.3284 39.2704C22.9378 39.6233 22.4515 39.8403 21.9246 39.8403C20.7455 39.8403 19.7949 38.9064 19.7949 37.7262C19.7949 36.546 20.7455 35.6011 21.9246 35.6011V35.6047Z" fill="black"/>
<path d="M25.4883 35.7736C25.4883 35.7148 25.5399 35.6633 25.5988 35.6633H25.8346C25.8936 35.6633 25.9452 35.7148 25.9452 35.7736V39.6709C25.9452 39.7297 25.8936 39.7812 25.8346 39.7812H25.5988C25.5399 39.7812 25.4883 39.7297 25.4883 39.6709V35.7736Z" fill="black"/>
<path d="M28.3435 35.7112C28.3435 35.6524 28.3951 35.6046 28.4541 35.6046H28.5425C28.583 35.6046 28.6125 35.6156 28.6383 35.6524L31.2617 38.9136H31.2727V35.7774C31.2727 35.7186 31.3206 35.6671 31.3832 35.6671H31.5896C31.6485 35.6671 31.7001 35.7186 31.7001 35.7774V39.7372C31.7001 39.796 31.6485 39.8438 31.5896 39.8438H31.5417C31.5012 39.8438 31.4717 39.8328 31.4459 39.796L28.7746 36.4723H28.7672V39.6747C28.7672 39.7335 28.7193 39.785 28.6567 39.785H28.4504C28.3914 39.785 28.3398 39.7335 28.3398 39.6747V35.7149L28.3435 35.7112Z" fill="black"/>
<path d="M33.5811 39.6305L35.3754 35.6708C35.3939 35.634 35.4233 35.6046 35.4749 35.6046H35.5339C35.5855 35.6046 35.6149 35.634 35.6334 35.6708L37.413 39.6305C37.4498 39.7078 37.4019 39.785 37.3135 39.785H37.0777C37.0261 39.785 36.9893 39.7482 36.9782 39.7188L36.5434 38.7482H34.4506L34.0196 39.7188C34.0085 39.7482 33.9717 39.785 33.9201 39.785H33.6843C33.5958 39.785 33.5479 39.7078 33.5848 39.6305H33.5811ZM36.3813 38.3842C36.0939 37.7407 35.8102 37.0937 35.5191 36.4539H35.4712L34.6091 38.3842H36.3776H36.3813Z" fill="black"/>
<path d="M41.9727 35.7736C41.9727 35.7148 42.0206 35.6633 42.0832 35.6633H44.4081C44.4744 35.6633 44.5187 35.7148 44.5187 35.7736V35.9428C44.5187 36.0016 44.4708 36.0531 44.4081 36.0531H42.4259V37.4906H44.117C44.176 37.4906 44.2276 37.5421 44.2276 37.6009V37.7701C44.2276 37.8362 44.176 37.8803 44.117 37.8803H42.4259V39.3804H44.4081C44.4744 39.3804 44.5187 39.4319 44.5187 39.4907V39.6598C44.5187 39.7187 44.4708 39.7701 44.4081 39.7701H42.0832C42.0169 39.7701 41.9727 39.7187 41.9727 39.6598V35.7626V35.7736Z" fill="black"/>
<path d="M46.3785 39.1637L46.4669 39.0534C46.5259 38.9762 46.5738 38.9468 46.6548 39.0167C46.6953 39.0534 47.1448 39.4468 47.668 39.4468C48.147 39.4468 48.4565 39.1454 48.4565 38.774C48.4565 38.3696 48.1028 38.1343 47.4249 37.8438C46.7764 37.5681 46.3858 37.3217 46.3858 36.6489C46.3858 36.2482 46.7027 35.6011 47.6423 35.6011C48.2207 35.6011 48.6518 35.9026 48.6518 35.9026C48.6887 35.9209 48.7513 35.9908 48.6887 36.1011L48.6297 36.2004C48.5818 36.2813 48.5192 36.2813 48.4234 36.2298C48.1765 36.0827 47.9702 35.9945 47.6386 35.9945C47.0122 35.9945 46.8243 36.3952 46.8243 36.6416C46.8243 37.0607 47.1264 37.2409 47.6202 37.4468C48.416 37.7703 48.9282 38.0718 48.9282 38.752C48.9282 39.366 48.346 39.8366 47.6533 39.8366C46.9606 39.8366 46.4853 39.4321 46.4079 39.3586C46.36 39.3182 46.29 39.263 46.3711 39.1601L46.3785 39.1637Z" fill="black"/>
<path d="M51.7362 36.0566H50.7082C50.6419 36.0566 50.5977 36.0051 50.5977 35.9463V35.7772C50.5977 35.7183 50.6456 35.6669 50.7082 35.6669H53.21C53.2763 35.6669 53.3205 35.7183 53.3205 35.7772V35.9463C53.3205 36.0051 53.2726 36.0566 53.21 36.0566H52.182V39.6707C52.182 39.7296 52.1304 39.781 52.0715 39.781H51.8467C51.7878 39.781 51.7362 39.7296 51.7362 39.6707V36.0566Z" fill="black"/>
<path d="M55.3105 35.7741C55.3105 35.7152 55.3584 35.6638 55.4211 35.6638H57.746C57.8123 35.6638 57.8565 35.7152 57.8565 35.7741V35.9432C57.8565 36.002 57.8086 36.0535 57.746 36.0535H55.7637V37.4911H57.4549C57.5139 37.4911 57.5655 37.5425 57.5655 37.6014V37.7705C57.5655 37.8367 57.5139 37.8808 57.4549 37.8808H55.7637V39.3809H57.746C57.8123 39.3809 57.8565 39.4323 57.8565 39.4912V39.6603C57.8565 39.7191 57.8086 39.7706 57.746 39.7706H55.4211C55.3548 39.7706 55.3105 39.7191 55.3105 39.6603V35.763V35.7741ZM56.0474 35.0461C56.0253 34.9983 56.0475 34.9505 56.0843 34.9358L56.9686 34.4431C57.0054 34.4211 57.0938 34.4064 57.1233 34.4615L57.2302 34.6747C57.2523 34.7225 57.2412 34.7814 57.1933 34.7998L56.2427 35.1932C56.1617 35.2299 56.1322 35.2299 56.1064 35.1821L56.0474 35.0534V35.0461Z" fill="black"/>
<path d="M60.701 36.0566H59.673C59.6067 36.0566 59.5625 36.0051 59.5625 35.9463V35.7772C59.5625 35.7183 59.6104 35.6669 59.673 35.6669H62.1748C62.2411 35.6669 62.2854 35.7183 62.2854 35.7772V35.9463C62.2854 36.0051 62.2375 36.0566 62.1748 36.0566H61.1468V39.6707C61.1468 39.7296 61.0953 39.781 61.0363 39.781H60.8115C60.7526 39.781 60.701 39.7296 60.701 39.6707V36.0566Z" fill="black"/>
<path d="M64.2676 35.7736C64.2676 35.7148 64.3192 35.6633 64.3781 35.6633H64.6139C64.6729 35.6633 64.7245 35.7148 64.7245 35.7736V39.6709C64.7245 39.7297 64.6729 39.7812 64.6139 39.7812H64.3781C64.3192 39.7812 64.2676 39.7297 64.2676 39.6709V35.7736Z" fill="black"/>
<path d="M68.9968 35.6047C69.5937 35.6047 70.0248 35.8106 70.4227 36.1526C70.4706 36.2004 70.4743 36.2702 70.4301 36.318L70.2717 36.4761C70.2238 36.5349 70.1759 36.5276 70.1169 36.4688C69.8111 36.204 69.4206 36.0276 68.9895 36.0276C68.0573 36.0276 67.3425 36.8107 67.3425 37.7225C67.3425 38.6343 68.0573 39.4101 68.9895 39.4101C69.5016 39.4101 69.8037 39.2336 70.1169 38.9689C70.1759 38.9211 70.2238 38.9284 70.2717 38.9762L70.408 39.1123C70.4559 39.149 70.4448 39.2299 70.4006 39.2704C70.0101 39.6233 69.5237 39.8403 68.9968 39.8403C67.8178 39.8403 66.8672 38.9064 66.8672 37.7262C66.8672 36.546 67.8178 35.6011 68.9968 35.6011V35.6047Z" fill="black"/>
<path d="M72.0323 39.6305L73.8266 35.6708C73.845 35.634 73.8745 35.6046 73.9261 35.6046H73.9851C74.0366 35.6046 74.0661 35.634 74.0845 35.6708L75.8642 39.6305C75.901 39.7078 75.8531 39.785 75.7647 39.785H75.5289C75.4773 39.785 75.4404 39.7482 75.4294 39.7188L74.9946 38.7482H72.9018L72.4707 39.7188C72.4597 39.7482 72.4228 39.785 72.3712 39.785H72.1354C72.047 39.785 71.9991 39.7078 72.0359 39.6305H72.0323ZM74.8325 38.3842C74.5451 37.7407 74.2614 37.0937 73.9703 36.4539H73.9224L73.0602 38.3842H74.8288H74.8325Z" fill="black"/>
<path d="M48.565 25.0122H41.185C38.8453 25.0122 36.9404 23.1114 36.9404 20.7804V0H33.8086V20.7804C33.8086 24.8394 37.1173 28.1411 41.185 28.1411H48.565V25.0159V25.0122Z" fill="black"/>
<path d="M66.4537 25.0122H59.0737C56.734 25.0122 54.8291 23.1114 54.8291 20.7804V0H51.6973V20.7804C51.6973 24.8394 55.006 28.1411 59.0737 28.1411H66.4537V25.0159V25.0122Z" fill="black"/>
<path d="M72.6774 16.1184V18.8171V28.1411H75.7613L75.754 18.8171V16.1184C75.7613 14.4161 76.2698 12.7764 77.2204 11.3792L84.9763 0H81.2402L74.6965 9.59238C74.5233 9.84607 74.3649 10.1034 74.2138 10.3682C74.0628 10.1034 73.9043 9.84607 73.7312 9.59238L67.1912 0H63.4551L71.2147 11.3792C72.1689 12.7764 72.6737 14.4161 72.6774 16.1184Z" fill="black"/>
<path d="M24.2314 0H21.0996V28.1411H24.2314V0Z" fill="black"/>
<path d="M14.7565 25.0122H7.37638C5.03672 25.0122 3.13183 23.1114 3.13183 20.7804V0H0V20.7804C0 24.8394 3.30869 28.1411 7.37638 28.1411H14.7565V25.0159V25.0122Z" fill="black"/>
<path d="M88.2978 20.0528C88.3089 20.0087 88.3531 19.9756 88.3973 19.9756H88.5189C88.5742 19.9756 88.6073 19.9976 88.6294 20.0528L90.9065 26.8252H90.9286L93.2167 20.0528C93.2388 19.9976 93.2719 19.9756 93.3272 19.9756H93.4488C93.493 19.9756 93.5372 20.0087 93.5483 20.0528L95.1179 27.6635C95.14 27.7738 95.0957 27.8068 94.9963 27.8068H94.731C94.6647 27.8068 94.6094 27.7517 94.5983 27.6855L93.3493 21.222H93.3272L91.0944 27.8289C91.0723 27.8951 91.006 27.9171 90.9396 27.9171H90.8954C90.8401 27.9171 90.7738 27.9061 90.7517 27.8289L88.5189 21.222H88.4968L87.2478 27.6855C87.2367 27.7517 87.1814 27.8068 87.1151 27.8068H86.8498C86.7503 27.8068 86.7061 27.7738 86.7282 27.6635L88.2978 20.0528Z" fill="black"/>
<path d="M101.91 20.2288C101.91 20.1516 101.976 20.0854 102.054 20.0854H106.486C106.564 20.0854 106.63 20.1516 106.63 20.2288V20.4163C106.63 20.4936 106.564 20.5597 106.486 20.5597H102.441V23.604H105.945C106.022 23.604 106.088 23.6702 106.088 23.7474V23.9349C106.088 24.0121 106.022 24.0783 105.945 24.0783H102.441V27.3432H106.486C106.564 27.3432 106.63 27.4093 106.63 27.4865V27.663C106.63 27.7402 106.564 27.8064 106.486 27.8064H102.054C101.976 27.8064 101.91 27.7402 101.91 27.663V20.2288Z" fill="black"/>
<path d="M113.633 20.2288C113.633 20.1516 113.699 20.0854 113.765 20.0854H116.109C118.253 20.0854 120 21.8172 120 23.9349C120 26.0527 118.327 27.8064 116.182 27.8064H113.839C113.773 27.8064 113.706 27.7402 113.706 27.663L113.633 20.2288ZM116.094 27.3321C118.062 27.3321 119.447 25.8651 119.447 23.9349C119.447 22.0047 117.999 20.5597 116.02 20.5597H114.152L114.226 27.3321H116.094Z" fill="black"/>
<path d="M81.7005 20.0847H81.332V39.7805H81.7005V20.0847Z" fill="black"/>
</svg>

<svg xmlns="http://www.w3.org/2000/svg" xmlns:xlink="http://www.w3.org/1999/xlink" width="120" height="40" fill="none" xmlns:v="https://vecta.io/nano"><g fill="#000"><path d="M1.043 35.686c.011-.048.059-.081.107-.081h.096c.041 0 .088.029.099.066l1.168 3.243h.029l1.15-3.243c.011-.037.059-.066.099-.066h.096c.048 0 .096.037.107.081l.759 3.956c.018.081-.018.14-.107.14H4.41a.12.12 0 0 1-.107-.081l-.523-3.03h-.022l-1.083 3.107c-.011.037-.066.066-.099.066h-.107c-.037 0-.088-.029-.099-.066l-1.098-3.107H1.25L.737 39.7c-.007.04-.059.081-.107.081H.395c-.088 0-.125-.059-.107-.14l.763-3.956h-.007zm5.846.088c0-.059.048-.11.111-.11h2.325c.066 0 .111.051.111.11v.169c0 .059-.048.11-.111.11H7.342v1.438h1.691c.059 0 .111.051.111.11v.169c0 .066-.052.11-.111.11H7.342v1.5h1.982c.066 0 .111.051.111.11v.169c0 .059-.048.11-.111.11H6.999c-.066 0-.111-.051-.111-.11v-3.897.011zm4.666 0a.11.11 0 0 1 .107-.11h1.319a2.07 2.07 0 0 1 2.071 2.055 2.08 2.08 0 0 1-2.071 2.066h-1.319a.11.11 0 0 1-.107-.11v-3.897-.004zm1.374 3.603c.965 0 1.643-.687 1.643-1.658s-.678-1.654-1.643-1.654h-.925v3.313h.925zm4.268-3.603c0-.059.052-.11.111-.11h.236c.059 0 .11.051.11.11v3.897c0 .059-.052.11-.11.11h-.236c-.059 0-.111-.051-.111-.11v-3.897z"/><use xlink:href="#B"/><use xlink:href="#C"/><path d="M28.344 35.711c0-.059.052-.107.111-.107h.088c.04 0 .07.011.096.048l2.623 3.261h.011v-3.136a.11.11 0 0 1 .11-.11h.206c.059 0 .11.052.11.11v3.96a.11.11 0 0 1-.11.107h-.048c-.04 0-.07-.011-.096-.048l-2.671-3.324h-.007v3.202a.11.11 0 0 1-.11.11h-.206c-.059 0-.111-.051-.111-.11v-3.96l.004-.004zm5.237 3.92l1.794-3.96c.019-.037.048-.066.099-.066h.059c.052 0 .081.029.099.066l1.78 3.96c.037.077-.011.154-.099.154h-.236c-.052 0-.088-.037-.099-.066l-.435-.971H34.45l-.431.971a.11.11 0 0 1-.099.066h-.236c-.089 0-.136-.077-.099-.154h-.004zm2.8-1.246l-.862-1.93h-.048l-.862 1.93h1.769.004zm5.592-2.611a.11.11 0 0 1 .11-.11h2.325c.066 0 .111.051.111.11v.169c0 .059-.048.11-.111.11h-1.982v1.438h1.691c.059 0 .111.051.111.11v.169c0 .066-.052.11-.111.11h-1.691v1.5h1.982c.066 0 .111.051.111.11v.169c0 .059-.048.11-.111.11h-2.325c-.066 0-.11-.051-.11-.11v-3.897.011zm4.406 3.39l.088-.11c.059-.077.107-.107.188-.037.041.037.49.43 1.013.43.479 0 .788-.301.788-.673 0-.404-.354-.64-1.032-.93-.648-.276-1.039-.522-1.039-1.195 0-.401.317-1.048 1.256-1.048a1.93 1.93 0 0 1 1.01.301c.037.018.099.088.037.199l-.059.099c-.048.081-.111.081-.206.029-.247-.147-.453-.235-.785-.235-.626 0-.814.401-.814.647 0 .419.302.599.796.805.796.323 1.308.625 1.308 1.305 0 .614-.582 1.085-1.275 1.085s-1.168-.404-1.245-.478c-.048-.04-.118-.096-.037-.199l.007.004zm5.357-3.107h-1.028c-.066 0-.11-.052-.11-.11v-.169a.11.11 0 0 1 .11-.11h2.502c.066 0 .111.051.111.11v.169c0 .059-.048.11-.111.11h-1.028v3.614c0 .059-.052.11-.111.11h-.225c-.059 0-.111-.051-.111-.11v-3.614zm3.575-.283c0-.059.048-.11.111-.11h2.325c.066 0 .11.051.11.11v.169a.11.11 0 0 1-.11.11h-1.982v1.438h1.691c.059 0 .111.051.111.11v.169c0 .066-.052.11-.111.11h-1.691v1.5h1.982c.066 0 .11.051.11.11v.169a.11.11 0 0 1-.11.11h-2.325c-.066 0-.111-.052-.111-.11v-3.897.011zm.737-.728c-.022-.048 0-.096.037-.11l.884-.493c.037-.022.125-.037.155.018l.107.213c.022.048.011.107-.037.125l-.951.393c-.081.037-.111.037-.136-.011l-.059-.129v-.007zm4.653 1.011h-1.028c-.066 0-.111-.052-.111-.11v-.169c0-.059.048-.11.111-.11h2.502c.066 0 .111.051.111.11v.169c0 .059-.048.11-.111.11h-1.028v3.614c0 .059-.051.11-.111.11h-.225c-.059 0-.111-.051-.111-.11v-3.614z"/><use xlink:href="#C" x="38.78"/><use xlink:href="#B" x="47.072"/><path d="M72.032 39.631l1.794-3.96c.018-.037.048-.066.1-.066h.059c.052 0 .081.029.099.066l1.78 3.96c.037.077-.011.154-.099.154h-.236c-.052 0-.088-.037-.099-.066l-.435-.971h-2.093l-.431.971c-.011.029-.048.066-.099.066h-.236c-.088 0-.136-.077-.1-.154h-.004zm2.8-1.246l-.862-1.93h-.048l-.862 1.93h1.769.004z"/><use xlink:href="#D"/><use xlink:href="#D" x="17.889"/><path d="M72.677 16.118v2.699 9.324h3.084l-.007-9.324v-2.699a8.46 8.46 0 0 1 1.466-4.739L84.976 0H81.24l-6.544 9.592-.483.776-.483-.776L67.191 0h-3.736l7.76 11.379a8.4 8.4 0 0 1 1.463 4.739zM24.231 0H21.1v28.141h3.132V0zm-9.474 25.012h-7.38c-2.34 0-4.245-1.901-4.245-4.232V0H0v20.78a7.38 7.38 0 0 0 7.376 7.361h7.38v-3.125-.004zm73.541-4.959c.011-.044.055-.077.1-.077h.122c.055 0 .088.022.111.077l2.277 6.772h.022l2.288-6.772c.022-.055.055-.077.111-.077h.122c.044 0 .088.033.099.077l1.57 7.611c.022.11-.022.143-.122.143h-.265c-.066 0-.122-.055-.133-.121l-1.249-6.463h-.022l-2.233 6.607c-.022.066-.088.088-.155.088h-.044c-.055 0-.122-.011-.144-.088l-2.233-6.607h-.022l-1.249 6.464c-.011.066-.066.121-.133.121h-.265c-.1 0-.144-.033-.122-.143l1.57-7.611zm13.612.176c0-.077.066-.143.144-.143h4.432c.078 0 .144.066.144.143v.188c0 .077-.066.143-.144.143h-4.045v3.044h3.504c.077 0 .143.066.143.143v.188c0 .077-.066.143-.143.143h-3.504v3.265h4.045c.078 0 .144.066.144.143v.177c0 .077-.066.143-.144.143h-4.432c-.078 0-.144-.066-.144-.143v-7.434zm11.723 0c0-.077.066-.143.132-.143h2.344c2.144 0 3.891 1.732 3.891 3.849s-1.673 3.872-3.818 3.872h-2.343c-.066 0-.133-.066-.133-.143l-.073-7.434zm2.461 7.103c1.968 0 3.353-1.467 3.353-3.397s-1.448-3.375-3.427-3.375h-1.868l.074 6.772h1.868zm-34.393-7.247h-.369v19.696h.369V20.085z"/></g><defs ><path id="B" d="M21.925 35.605c.597 0 1.028.206 1.426.548.048.048.052.118.007.165l-.158.158c-.048.059-.096.051-.155-.007-.306-.265-.696-.441-1.127-.441-.932 0-1.647.783-1.647 1.695s.715 1.688 1.647 1.688c.512 0 .814-.176 1.127-.441a.1.1 0 0 1 .155.007l.136.136c.048.037.037.118-.007.158-.391.353-.877.57-1.404.57-1.179 0-2.13-.934-2.13-2.114a2.12 2.12 0 0 1 2.13-2.125v.004z"/><path id="C" d="M25.488 35.774c0-.059.052-.11.111-.11h.236c.059 0 .111.051.111.11v3.897c0 .059-.052.11-.111.11h-.236c-.059 0-.111-.051-.111-.11v-3.897z"/><path id="D" d="M48.565 25.012h-7.38c-2.34 0-4.245-1.901-4.245-4.232V0h-3.132v20.78a7.38 7.38 0 0 0 7.376 7.361h7.38v-3.125-.004z"/></defs></svg>
